packages/opendesign/src/icons/svgs/fill/point.svg

<?xml version="1.0" encoding="UTF-8"?>
<svg width="24px" height="24px" viewBox="0 0 24 24" version="1.1" xmlns="http://www.w3.org/2000/svg" xmlns:xlink="http://www.w3.org/1999/xlink">
    <title>point</title>
    <g id="point" stroke="none" stroke-width="1" fill="none" fill-rule="evenodd">
        <path d="M12,3 C16.9705627,3 21,7.02943725 21,12 C21,16.9705627 16.9705627,21 12,21 C7.02943725,21 3,16.9705627 3,12 C3,7.02943725 7.02943725,3 12,3 Z M12.0105392,15.5654968 C11.6791683,15.5654968 11.4105392,15.834126 11.4105392,16.1654968 C11.4105392,16.4968677 11.6791683,16.7654968 12.0105392,16.7654968 C12.34191,16.7654968 12.6105392,16.4968677 12.6105392,16.1654968 C12.6105392,15.834126 12.34191,15.5654968 12.0105392,15.5654968 Z M12.0091291,7.7980089 C11.7882152,7.7980089 11.6044816,7.95719655 11.5663793,8.16712083 L11.5591291,8.2480089 L11.5591291,14.2480089 C11.5591291,14.496537 11.760601,14.6980089 12.0091291,14.6980089 C12.230043,14.6980089 12.4137767,14.5388213 12.451879,14.328897 L12.4591291,14.2480089 L12.4591291,8.2480089 C12.4591291,7.99948076 12.2576573,7.7980089 12.0091291,7.7980089 Z" id="path1" fill="#000000"></path>
    </g>
</svg>

<!-- Generated by IcoMoon.io -->
<svg version="1.1" xmlns="http://www.w3.org/2000/svg" width="24" height="24" viewBox="0 0 24 24">
<title>point</title>
<path d="M12 3c4.971 0 9 4.029 9 9s-4.029 9-9 9c-4.971 0-9-4.029-9-9s4.029-9 9-9zM12.011 15.566c-0.331 0-0.6 0.269-0.6 0.6s0.269 0.6 0.6 0.6c0.331 0 0.6-0.269 0.6-0.6s-0.269-0.6-0.6-0.6zM12.009 7.798c-0.221 0-0.405 0.159-0.443 0.369l-0.007 0.081v6c0 0.249 0.201 0.45 0.45 0.45 0.221 0 0.405-0.159 0.443-0.369l0.007-0.081v-6c0-0.249-0.201-0.45-0.45-0.45z"></path>
</svg>
